!!!OTL: Gundeng gunlai liangtangtang
!!!ARE: Asia, China,ÿHubei Songsi
!! I, 378
!!!SCT: C2137
!!!YEM: Copyright 1995, estate of Helmut Schaffrath.
**kern
*ICvox
*Ivox
!! Mixed meters:  2/4; 3/4
*M3/4
*k[f#c#g#]
*A:
{8a
16a
16b
16ee
16cc#
8cc#
=1
8b
16cc#
16b
16a
16b
8f#
=2
8a
16a
16b
16ee
16cc#
8cc#
=3
8b
16cc#
16b
16a
16b
8f#}
=4
{8f#
8a
8f#
8a
=5
16a
16b
8cc#
8cc#
8cc#
=6
16b
16cc#
8a
4.b
8f#}
=7
*M2/4
{8f#
16f#
16cc#
16b
16cc#
16b
16a
=8
16f#
16a
4e
8f#
=9
8.a
16cc#
16b
16a
8f#
=10
2e}
=11
{8f#
8cc#
16b
16cc#
16b
16a
=12
16f#
16a
4e
8f#
=13
8.a
16cc#
16b
16a
8f#
=14
2e}
=15
{8.a
16b
16ee
16cc#
8cc#
=16
16b
16cc#
8a
8.b
16cc#
=17
8.a
16b
16ee
16cc#
8cc#
=18
*M3/4
16b
16cc#
8a
4.b
8f#}
=19
*M2/4
{8f#
8cc#
16b
16cc#
16b
16a
=20
16f#
16a
4e
8f#
=21
4a
4b
=22
16cc#
16ee
8f#
8e
8f#
=23
2e}
==
!!!AGN: Xiaodiao, Dengdiao, Fangxiandiao Jiuliandeng
!!!ONB: ESAC (Essen Associative Code) Database: SENGANSU
!!!AMT: irregular
!!!AIN: vox
!!!EED: Helmut Schaffrath
!!!EEV: 1.0
*-
